packages/icons/svg/24/Emoji.svg

<svg width="24" height="24" viewBox="0 0 24 24" fill="none" xmlns="http://www.w3.org/2000/svg">
<path fill-rule="evenodd" clip-rule="evenodd" d="M16 2H8C4.68629 2 2 4.68629 2 8V16C2 19.3137 4.68629 22 8 22H16C19.3137 22 22 19.3137 22 16V8C22 4.68629 19.3137 2 16 2ZM8 4C5.79086 4 4 5.79086 4 8V16C4 18.2091 5.79086 20 8 20H16C18.2091 20 20 18.2091 20 16V8C20 5.79086 18.2091 4 16 4H8ZM8.5 12C9.32843 12 10 11.3284 10 10.5C10 9.67157 9.32843 9 8.5 9C7.67157 9 7 9.67157 7 10.5C7 11.3284 7.67157 12 8.5 12ZM17 10.5C17 11.3284 16.3284 12 15.5 12C14.6716 12 14 11.3284 14 10.5C14 9.67157 14.6716 9 15.5 9C16.3284 9 17 9.67157 17 10.5ZM8.11091 15.8891C10.2588 18.037 13.7412 18.037 15.8891 15.8891C16.2796 15.4986 16.2796 14.8654 15.8891 14.4749C15.4986 14.0843 14.8654 14.0843 14.4749 14.4749C13.108 15.8417 10.892 15.8417 9.52513 14.4749C9.1346 14.0843 8.50144 14.0843 8.11091 14.4749C7.72039 14.8654 7.72039 15.4986 8.11091 15.8891Z" fill="#858585"/>
</svg>

<svg width="24" height="24" fill="none" xmlns="http://www.w3.org/2000/svg" viewBox="0 0 24 24"><path fill-rule="evenodd" clip-rule="evenodd" d="M16 2H8a6 6 0 00-6 6v8a6 6 0 006 6h8a6 6 0 006-6V8a6 6 0 00-6-6zM8 4a4 4 0 00-4 4v8a4 4 0 004 4h8a4 4 0 004-4V8a4 4 0 00-4-4H8zm.5 8a1.5 1.5 0 100-3 1.5 1.5 0 000 3zm8.5-1.5a1.5 1.5 0 11-3 0 1.5 1.5 0 013 0zm-8.89 5.39a5.5 5.5 0 007.78 0 1 1 0 00-1.415-1.415 3.5 3.5 0 01-4.95 0 1 1 0 10-1.414 1.414z" fill="currentColor"></path></svg>
